resources/haticons/SVG/volume-mute2.svg

<!-- Generated by IcoMoon.io -->
<svg version="1.1" xmlns="http://www.w3.org/2000/svg" width="24" height="24" viewBox="0 0 24 24">
<title>volume-mute2</title>
<path d="M22.5 14.511v1.989h-1.989l-2.511-2.511-2.511 2.511h-1.989v-1.989l2.511-2.511-2.511-2.511v-1.989h1.989l2.511 2.511 2.511-2.511h1.989v1.989l-2.511 2.511 2.511 2.511z"></path>
<path d="M9.75 22.5c-0.195 0-0.387-0.076-0.53-0.22l-5.78-5.78h-2.689c-0.414 0-0.75-0.336-0.75-0.75v-7.5c0-0.414 0.336-0.75 0.75-0.75h2.689l5.78-5.78c0.215-0.215 0.537-0.279 0.817-0.163s0.463 0.39 0.463 0.693v19.5c0 0.303-0.183 0.577-0.463 0.693-0.093 0.038-0.19 0.057-0.287 0.057z"></path>
</svg>

<svg xmlns="http://www.w3.org/2000/svg" width="24" height="24"><path d="M22.5 14.511V16.5h-1.989L18 13.989 15.489 16.5H13.5v-1.989L16.011 12 13.5 9.489V7.5h1.989L18 10.011 20.511 7.5H22.5v1.989L19.989 12l2.511 2.511zM9.75 22.5a.746.746 0 0 1-.53-.22L3.44 16.5H.751a.75.75 0 0 1-.75-.75v-7.5a.75.75 0 0 1 .75-.75H3.44l5.78-5.78a.75.75 0 0 1 1.28.53v19.5a.75.75 0 0 1-.75.75z"/></svg>
